X:21131 
T:MERRY MARY 
B:DMI.0365
Z:Nordberg/Black
R:jig
%Q:1/4=160
M:6/8
L:1/8
K:D
E|DFA ABc|dcB A2A|B2E EFG|FEF D3|
DFA ABc|dcB A2A|Bcd edc|d3 d2:|
e|fdf ece|dcB A2A|B2E EFG|FEF D3|
fdf ece|dcB A2A|Bcd edc|d3 d2:|

%%%

